SVG_Azure_Grouped/AI/Cognitive Services Content Extraction.svg

<?xml version="1.0" encoding="UTF-8" standalone="no"?>
<!-- Generated by Microsoft Visio, SVG Export Cognitive Services Content Extraction.svg Page-1 -->

<svg
   xmlns:dc="http://purl.org/dc/elements/1.1/"
   xmlns:cc="http://creativecommons.org/ns#"
   xmlns:rdf="http://www.w3.org/1999/02/22-rdf-syntax-ns#"
   xmlns:svg="http://www.w3.org/2000/svg"
   xmlns="http://www.w3.org/2000/svg"
   xmlns:sodipodi="http://sodipodi.sourceforge.net/DTD/sodipodi-0.dtd"
   xmlns:inkscape="http://www.inkscape.org/namespaces/inkscape"
   width="0.70866251in"
   height="0.78740281in"
   viewBox="0 0 51.023698 56.692825"
   xml:space="preserve"
   class="st3"
   version="1.1"
   id="svg66"
   sodipodi:docname="Cognitive Services Content Extraction.svg"
   style="font-size:12px;overflow:visible;color-interpolation-filters:sRGB;fill:none;fill-rule:evenodd;stroke-linecap:square;stroke-miterlimit:3"
   inkscape:version="0.92.5 (2060ec1f9f, 2020-04-08)"><metadata
   id="metadata72"><rdf:RDF><cc:Work
       rdf:about=""><dc:format>image/svg+xml</dc:format><dc:type
         rdf:resource="http://purl.org/dc/dcmitype/StillImage" /></cc:Work></rdf:RDF></metadata><defs
   id="defs70" /><sodipodi:namedview
   pagecolor="#ffffff"
   bordercolor="#666666"
   borderopacity="1"
   objecttolerance="10"
   gridtolerance="10"
   guidetolerance="10"
   inkscape:pageopacity="0"
   inkscape:pageshadow="2"
   inkscape:window-width="640"
   inkscape:window-height="480"
   id="namedview68"
   showgrid="false"
   inkscape:zoom="1.7151442"
   inkscape:cx="34.015735"
   inkscape:cy="23.447067"
   inkscape:window-x="0"
   inkscape:window-y="0"
   inkscape:window-maximized="0"
   inkscape:current-layer="svg66" />
	<style
   type="text/css"
   id="style2">
	<![CDATA[
		.st1 {fill:#50e6ff;stroke:none;stroke-linecap:butt;stroke-width:12.4898}
		.st2 {fill:#0078d4;stroke:none;stroke-linecap:butt;stroke-width:12.4898}
		.st3 {fill:none;fill-rule:evenodd;font-size:12px;overflow:visible;stroke-linecap:square;stroke-miterlimit:3}
	]]>
	</style>

	<g
   id="g64"
   transform="translate(-12.4898,-12.491461)">
		<title
   id="title4">Page-1</title>
		<g
   id="group18661-1"
   transform="translate(12.4898,-34.0157)">
			<title
   id="title6">Cognitive Services Content Extraction.18661</title>
			<g
   id="shape18662-2"
   transform="translate(20.7792,-10.4292)">
				<title
   id="title8">Sheet.18662</title>
				<path
   d="M 30.22,73.61 H 0 v 29.59 h 30.22 z"
   class="st1"
   id="path10"
   inkscape:connector-curvature="0"
   style="fill:#50e6ff;stroke:none;stroke-width:12.48980045;stroke-linecap:butt" />
			</g>
			<g
   id="shape18663-4"
   transform="translate(20.7225,-9.99613)">
				<title
   id="title13">Sheet.18663</title>
				<path
   d="m 0.02,93.01 v 10.19 h 30.25 v -6.23 0.06 L 25.47,92.31 20.69,97.03 8.05,84.94 0,92.84 Z"
   class="st2"
   id="path15"
   inkscape:connector-curvature="0"
   style="fill:#0078d4;stroke:none;stroke-width:12.48980045;stroke-linecap:butt" />
			</g>
			<g
   id="shape18664-6"
   transform="translate(39.1207,-28.7741)">
				<title
   id="title18">Sheet.18664</title>
				<path
   d="m 7.87,99.34 c 0,2.14 -1.76,3.86 -3.94,3.86 -2.17,0 -3.93,-1.73 -3.93,-3.86 0,-2.13 1.73,-3.89 3.9,-3.89 2.18,0 3.97,1.74 3.97,3.89 z"
   class="st2"
   id="path20"
   inkscape:connector-curvature="0"
   style="fill:#0078d4;stroke:none;stroke-width:12.48980045;stroke-linecap:butt" />
			</g>
			<g
   id="shape18665-8"
   transform="translate(0.0224644,-42.583)">
				<title
   id="title23">Sheet.18665</title>
				<path
   d="M 17,89.09 H 0 v 11.56 h 2.62 v 2.55 l 2.62,-2.55 H 17 Z"
   class="st2"
   id="path25"
   inkscape:connector-curvature="0"
   style="fill:#0078d4;stroke:none;stroke-width:12.48980045;stroke-linecap:butt" />
			</g>
			<g
   id="shape18666-10"
   transform="translate(0,-0.0227933)">
				<title
   id="title28">Sheet.18666</title>
				<path
   d="M 16.99,83.28 H 0 v 19.92 h 16.99 z"
   class="st1"
   id="path30"
   inkscape:connector-curvature="0"
   style="fill:#50e6ff;stroke:none;stroke-width:12.48980045;stroke-linecap:butt" />
			</g>
			<g
   id="shape18667-12"
   transform="translate(20.7337)">
				<title
   id="title33">Sheet.18667</title>
				<path
   d="M 30.29,96.53 H 0 v 6.67 h 30.29 z"
   class="st2"
   id="path35"
   inkscape:connector-curvature="0"
   style="fill:#0078d4;stroke:none;stroke-width:12.48980045;stroke-linecap:butt" />
			</g>
			<g
   id="shape18668-14"
   transform="translate(20.7792,-51.7506)">
				<title
   id="title38">Sheet.18668</title>
				<path
   d="M 30.23,98.31 H 0 v 4.89 h 30.23 z"
   class="st2"
   id="path40"
   inkscape:connector-curvature="0"
   style="fill:#0078d4;stroke:none;stroke-width:12.48980045;stroke-linecap:butt" />
			</g>
			<g
   id="shape18669-16"
   transform="translate(0.0792388,-35.9187)">
				<title
   id="title43">Sheet.18669</title>
				<path
   d="M 16.94,99.12 H 0 v 4.08 h 16.94 z"
   class="st2"
   id="path45"
   inkscape:connector-curvature="0"
   style="fill:#0078d4;stroke:none;stroke-width:12.48980045;stroke-linecap:butt" />
			</g>
			<g
   id="shape18670-18"
   transform="translate(0.0792388,-30.4639)">
				<title
   id="title48">Sheet.18670</title>
				<path
   d="M 16.94,99.12 H 0 v 4.08 h 16.94 z"
   class="st2"
   id="path50"
   inkscape:connector-curvature="0"
   style="fill:#0078d4;stroke:none;stroke-width:12.48980045;stroke-linecap:butt" />
			</g>
			<g
   id="shape18671-20"
   transform="translate(0.0792388,-25.0093)">
				<title
   id="title53">Sheet.18671</title>
				<path
   d="M 16.94,99.12 H 0 v 4.08 h 16.94 z"
   class="st1"
   id="path55"
   inkscape:connector-curvature="0"
   style="fill:#50e6ff;stroke:none;stroke-width:12.48980045;stroke-linecap:butt" />
			</g>
			<g
   id="shape18672-22"
   transform="translate(20.7792,-45.1413)">
				<title
   id="title58">Sheet.18672</title>
				<path
   d="M 30.23,98.31 H 0 v 4.89 h 30.23 z"
   class="st2"
   id="path60"
   inkscape:connector-curvature="0"
   style="fill:#0078d4;stroke:none;stroke-width:12.48980045;stroke-linecap:butt" />
			</g>
		</g>
	</g>
</svg>

<?xml version="1.0" encoding="UTF-8" standalone="no"?>
<!DOCTYPE svg PUBLIC "-//W3C//DTD SVG 1.1//EN" "http://www.w3.org/Graphics/SVG/1.1/DTD/svg11.dtd">
<!-- Generated by Microsoft Visio, SVG Export Cognitive Services Content Extraction.svg Page-1 -->
<svg xmlns="http://www.w3.org/2000/svg" xmlns:xlink="http://www.w3.org/1999/xlink" xmlns:ev="http://www.w3.org/2001/xml-events"
		width="1.0556in" height="1.43331in" viewBox="0 0 76.0032 103.198" xml:space="preserve" color-interpolation-filters="sRGB"
		class="st3">
	<style type="text/css">
	<![CDATA[
		.st1 {fill:#50e6ff;stroke:none;stroke-linecap:butt;stroke-width:12.4898}
		.st2 {fill:#0078d4;stroke:none;stroke-linecap:butt;stroke-width:12.4898}
		.st3 {fill:none;fill-rule:evenodd;font-size:12px;overflow:visible;stroke-linecap:square;stroke-miterlimit:3}
	]]>
	</style>

	<g>
		<title>Page-1</title>
		<g id="group18231-1" transform="translate(12.4898,-34.0157)">
			<title>Cognitive Services Content Extraction.18231</title>
			<g id="shape18232-2" transform="translate(20.7792,-10.4292)">
				<title>Sheet.18232</title>
				<path d="M30.22 73.61 L0 73.61 L0 103.2 L30.22 103.2 L30.22 73.61 Z" class="st1"/>
			</g>
			<g id="shape18233-4" transform="translate(20.7225,-9.99613)">
				<title>Sheet.18233</title>
				<path d="M0.02 93.01 L0.02 103.2 L30.27 103.2 L30.27 96.97 L30.27 97.03 L25.47 92.31 L20.69 97.03 L8.05 84.94 L0
							 92.84 L0.02 93.01 Z" class="st2"/>
			</g>
			<g id="shape18234-6" transform="translate(39.1207,-28.7741)">
				<title>Sheet.18234</title>
				<path d="M7.87 99.34 C7.87 101.48 6.11 103.2 3.93 103.2 C1.76 103.2 0 101.47 0 99.34 C0 97.21 1.73 95.45 3.9 95.45
							 C6.08 95.45 7.87 97.19 7.87 99.34 Z" class="st2"/>
			</g>
			<g id="shape18235-8" transform="translate(0.0224644,-42.583)">
				<title>Sheet.18235</title>
				<path d="M17 89.09 L0 89.09 L0 100.65 L2.62 100.65 L2.62 103.2 L5.24 100.65 L17 100.65 L17 89.09 Z" class="st2"/>
			</g>
			<g id="shape18236-10" transform="translate(0,-0.0227933)">
				<title>Sheet.18236</title>
				<path d="M16.99 83.28 L0 83.28 L0 103.2 L16.99 103.2 L16.99 83.28 Z" class="st1"/>
			</g>
			<g id="shape18237-12" transform="translate(20.7337,-5.68434E-14)">
				<title>Sheet.18237</title>
				<path d="M30.29 96.53 L0 96.53 L0 103.2 L30.29 103.2 L30.29 96.53 Z" class="st2"/>
			</g>
			<g id="shape18238-14" transform="translate(20.7792,-51.7506)">
				<title>Sheet.18238</title>
				<path d="M30.23 98.31 L0 98.31 L0 103.2 L30.23 103.2 L30.23 98.31 Z" class="st2"/>
			</g>
			<g id="shape18239-16" transform="translate(0.0792388,-35.9187)">
				<title>Sheet.18239</title>
				<path d="M16.94 99.12 L0 99.12 L0 103.2 L16.94 103.2 L16.94 99.12 Z" class="st2"/>
			</g>
			<g id="shape18240-18" transform="translate(0.0792388,-30.4639)">
				<title>Sheet.18240</title>
				<path d="M16.94 99.12 L0 99.12 L0 103.2 L16.94 103.2 L16.94 99.12 Z" class="st2"/>
			</g>
			<g id="shape18241-20" transform="translate(0.0792388,-25.0093)">
				<title>Sheet.18241</title>
				<path d="M16.94 99.12 L0 99.12 L0 103.2 L16.94 103.2 L16.94 99.12 Z" class="st1"/>
			</g>
			<g id="shape18242-22" transform="translate(20.7792,-45.1413)">
				<title>Sheet.18242</title>
				<path d="M30.23 98.31 L0 98.31 L0 103.2 L30.23 103.2 L30.23 98.31 Z" class="st2"/>
			</g>
		</g>
	</g>
</svg>
